X:1
T:A Major Samuel Holyoke, 1795
T:Charles Wesley, 1758, reworking of John Cennick, 1752; amended by Martin Madan, 1760, and John Rippon, 1787 87. 87. 47.
T:Sandusky Transcribed from A Musical Concert, 1807.
%%score [ 1 2 3 ]
L:1/8
Q:1/4=60
M:4/4
K:A
V:1 treble nm="Tr." snm="Tr."
V:2 treble-8 nm="T." snm="T."
V:3 bass nm="B." snm="B."
V:1
 ce e/d/c/d/ (e c2) B/A/ | Bc/d/ cB AE/D/ C z | E2 G2 A3 d | cBAG A2 z2 | c2 BA/G/ c2 Bc | %5
 d/c/d/c/ BA A2 G z | A>B cB A>B c z | A2 A/G/F/E/ Ac BA/B/ | c2 BA G2 z2 | %9
 c>dc/B/ A/G/ c>dc/B/ A/c/ | dc/B/ Ae e>d c z | c3 A d2 cB | AB/c/ BA (A2 G) z | %13
 c>d c B/A/ d2 c z | c>d c B/A/ d2 c z | ce[ce][ce] [Be]2 [A^d]2 | [Ge]6 z2 | %17
 z4"^Hal   –    le –  lu     –     jah," e>f ed | c>d cB z4 | %19
"^Je–sus now shall  ev       –       er       reign.                      Hal        –       le  – lu      –      jah,            Hal       –        le  – lu       –      jah," cA d c/B/ A>B cc | %20
 (c2 B2) z4 | c>d cd c/d/c/B/ A z | d>e dc B/c/B/A/ G z | %23
"^Je          –        sus   now              shall    ev       –          er    reign.       Hal–le–lu– jah,  Hal–le– lu–jah,  Jesus now shall ever reign." [ce]/[df]/[ce]/[Bd]/ [Ac][GB] [Ac]/[Bd]/[ce]/[Bd]/ [Ac][ce] | %24
 [df]/[ce]/[Bd]/[ce]/ [df] [ce]/[Bd]/ [Ac][GB] z2 | %25
 [Ac]/[GB]/ [Ac]/[Bd]/ [ce][ce] e/f/ [eg]/[df]/ e[Be] | cde[df] [ce]2 [Bd]2 | c4 |] %28
V:2
"^1. Lo,    he            comes   in        clouds        de– scen – ding,         Once for fa–vored  sin–ners slain;       Thousand thousand" Ac c/B/A/B/ (c e2) d/c/ | %1
 de/f/ ed c/d/c/B/ A z | A2 B2 c>d ef | edcB A2 z2 | a2 gf/e/ a2 gf/e/ | %5
"^saints           at – ten–ding            Swell            the tri– umphs,         Swell      the             tri      –    umphs     of        his       train." f/e/f/e/ dc c2 c z | %6
 A/B/c/d/ ed c>d e z | fe/d/ c/B/A/B/ (c e2) a/g/ | fe ^d2 e2 z2 | %9
"^Thou     –       sand  thou       –       sand      saints             at – ten – ding          Swell the triumphs     of                    his  train." e>fe/d/ c/B/ a>ba/g/ f/e/ | %10
 fe/d/ cB c>B A z | a3 e f2 ed | cd/e/ dc (c2 B) z | %13
"^Hal   –    le –  lu–jah,     Hal   –    le – lu – jah,   Jesus now shall ever reign.     Hal   –   le – lu    –    jah," e>f e d/c/ f2 e z | %14
 e>f e d/c/ f2 e z | aaga g2 f2 | e6 z2 | e>f ed c>d cB | z8 | %19
"^Je–sus  now shall  ev        –       er        reign.                                                                                              Hal        –       le  – lu      –      jah," ee f e/d/ c>d ea | %20
 (a2 g2) z4 | e>f ef e/f/e/d/ c z | f>=g fe d/e/d/c/ B z | %23
"^Je        –          sus  now             shall     ev      –       er      reign.                                               Hal–le–lu–jah, Jesus now shall ever  reign." A3 E A3 A | %24
 D2 D2 E2 z2 | z4 e/d/ e/f/ gg | agaa a2 g2 | a4 |] %28
V:3
 A,2 E,2 A,2 A,,2 | D,2 E,2 A,,2 A,, z | C,2 B,,2 A,,>B,, C,D, | E,2 E,2 A,,2 z2 | %4
 A,2 E,2 A,2 E,A,, | D,3 ^D, E,2 E, z | A,3 E, A,2 A, z | D,2 E,F,/G,/ A,2 E,F,/G,/ | %8
 A,2 B,2 E,2 z2 | A,2 E,2 A,2 A,2 | D,2 E,2 A,2 A, z | A,,2 C,2 D,2 E,2 | (A,2 G,)A, E,2 z2 | %13
"^Hal          –        le      –       lu        –           jah,           Jesus now shall ever reign." A,4 A,4 | %14
 A,4 A,3 z | A,CB,A, B,2 B,,2 | E,6 z2 | z8 | %18
"^Hal    –   le – lu    –    jah," A,>B, A,G, F,>G, F,E, | %19
"^Jesus  now shall ev    –    er            reign.                                                                                                  Hal     –   le    –     lu      –        jah," A,,C,D,E, A,2 A,2 | %20
 E,4 z4 | z8 | D,2 A,,2 E,2 E, z | z8 | z8 | %25
"^Hal–le–lu– jah,  Hal–le– lu–jah,  Jesus now shall ever reign." A,A,A,A, B,B,E,E, | %26
 A,B,CD E2 E,2 | A,4 |] %28

